UI/Core-UI/SVG/gps_outline_24px.svg

<svg width="24" height="24" viewBox="0 0 24 24" fill="none" xmlns="http://www.w3.org/2000/svg">
<path d="M7.75006 5L16.7501 14C15.4913 14.6574 14.0557 14.8959 12.652 14.6808C11.2484 14.4657 9.95002 13.8083 8.9459 12.8042C7.94179 11.8 7.28435 10.5017 7.06926 9.09802C6.85418 7.69437 7.09268 6.25871 7.75006 5ZM7.54006 2C5.99884 3.64141 5.15663 5.81802 5.1916 8.06932C5.22657 10.3206 6.13598 12.47 7.72744 14.0628C9.31889 15.6555 11.4675 16.5667 13.7188 16.6035C15.9701 16.6403 18.1474 15.7999 19.7901 14.26L7.54006 2ZM14.6401 18.75L15.1801 22H5.72006L7.09006 16.52C7.64474 16.9543 8.24097 17.3329 8.87006 17.65L8.28006 20H12.8201L12.6101 18.74C12.9621 18.7768 13.3161 18.7935 13.6701 18.79C14.0001 18.79 14.3201 18.78 14.6401 18.75ZM15.3801 7.83L14.0001 6.41L18.2401 2.17L19.6501 3.59L15.3801 7.83Z" fill="#0F1621"/>
</svg>

<svg xmlns="http://www.w3.org/2000/svg" width="24" height="24" viewBox="0 0 24 24"><rect width="24" height="24" style="fill:none"/><path d="M7.75,5l9,9a6.67,6.67,0,0,1-9-9M7.54,2A8.67,8.67,0,0,0,19.79,14.26L7.54,2Zm7.1,16.75L15.18,22H5.72l1.37-5.48a10.7,10.7,0,0,0,1.78,1.13L8.28,20h4.54l-.21-1.26a9.29,9.29,0,0,0,1.06.05C14,18.79,14.32,18.78,14.64,18.75Zm.74-10.92L14,6.41l4.24-4.24,1.41,1.42Z"/></svg>
